svg/epsilon.svg

<svg xmlns="http://www.w3.org/2000/svg" viewBox="0 0 24 24"><path d="m15.05 7.78 1.1-1.6S14.91 5 12.77 5c-2.73 0-4.42 1.84-4.42 3.76s1.73 2.93 1.73 2.93S8 12.38 8 15c0 2.63 2.14 4 4.44 4 2.94 0 4.56-1.96 4.56-1.96l-1.4-1.54s-1.46 1.37-3.01 1.37c-1.93 0-2.38-1.18-2.38-1.95 0-1.05.33-2.27 3.62-2.27l-.01-1.88s-3.38.34-3.38-1.99c0-1.57 1.46-1.86 2.2-1.86 1.64 0 2.41.86 2.41.86"/></svg>

<?xml version="1.0" encoding="UTF-8"?><!DOCTYPE svg PUBLIC "-//W3C//DTD SVG 1.1//EN" "http://www.w3.org/Graphics/SVG/1.1/DTD/svg11.dtd"><svg xmlns="http://www.w3.org/2000/svg" xmlns:xlink="http://www.w3.org/1999/xlink" version="1.1" id="mdi-epsilon" width="24" height="24" viewBox="0 0 24 24"><path d="M15.05 7.78L16.15 6.18C16.15 6.18 14.91 5 12.77 5C10.04 5 8.35 6.84 8.35 8.76C8.35 10.68 10.08 11.69 10.08 11.69C10.08 11.69 8 12.38 8 15C8 17.63 10.14 19 12.44 19C15.38 19 17 17.04 17 17.04L15.6 15.5C15.6 15.5 14.14 16.87 12.59 16.87C10.66 16.87 10.21 15.69 10.21 14.92C10.21 13.87 10.54 12.65 13.83 12.65L13.82 10.77C13.82 10.77 10.44 11.11 10.44 8.78C10.44 7.21 11.9 6.92 12.64 6.92C14.28 6.92 15.05 7.78 15.05 7.78" /></svg>
